static/img/kroki/4239eeccc2ac32b468392ae8c187c930.svg

<?xml version="1.0" encoding="us-ascii" standalone="no"?><svg xmlns="http://www.w3.org/2000/svg" xmlns:xlink="http://www.w3.org/1999/xlink" contentStyleType="text/css" height="152px" preserveAspectRatio="none" style="width:358px;height:152px;" version="1.1" viewBox="0 0 358 152" width="358px" zoomAndPan="magnify"><defs/><g><!--class azure_machine_learning_endpoint--><g id="elem_azure_machine_learning_endpoint"><rect codeLine="23" fill="#3D176E" height="39.7891" id="azure_machine_learning_endpoint" rx="2.5" ry="2.5" style="stroke:#000D19;stroke-width:0.5;" width="330" x="14" y="106.79"/><ellipse cx="29" cy="126.6845" fill="#ADD1B2" rx="11" ry="11" style="stroke:#181818;stroke-width:1.0;"/><path d="M31.9688,132.3252 Q31.3906,132.622 30.75,132.7627 Q30.1094,132.9189 29.4063,132.9189 Q26.9063,132.9189 25.5781,131.2783 Q24.2656,129.622 24.2656,126.497 Q24.2656,123.372 25.5781,121.7158 Q26.9063,120.0595 29.4063,120.0595 Q30.1094,120.0595 30.75,120.2158 Q31.4063,120.372 31.9688,120.6689 L31.9688,123.3877 Q31.3438,122.8095 30.75,122.5439 Q30.1563,122.2627 29.5313,122.2627 Q28.1875,122.2627 27.5,123.3408 Q26.8125,124.4033 26.8125,126.497 Q26.8125,128.5908 27.5,129.6689 Q28.1875,130.7314 29.5313,130.7314 Q30.1563,130.7314 30.75,130.4658 Q31.3438,130.1845 31.9688,129.6064 L31.9688,132.3252 Z " fill="#000000"/><text fill="#D9B8FF" font-family="Helvetica" font-size="17" lengthAdjust="spacing" textLength="288" x="48" y="132.5698">azure_machine_learning_endpoint</text></g><!--class azure_machine_learning_workspace--><g id="elem_azure_machine_learning_workspace"><rect codeLine="26" fill="#3D176E" height="39.7891" id="azure_machine_learning_workspace" rx="2.5" ry="2.5" style="stroke:#000D19;stroke-width:0.5;" width="344" x="7" y="7"/><ellipse cx="22" cy="26.8945" fill="#ADD1B2" rx="11" ry="11" style="stroke:#181818;stroke-width:1.0;"/><path d="M24.9688,32.5352 Q24.3906,32.832 23.75,32.9727 Q23.1094,33.1289 22.4063,33.1289 Q19.9063,33.1289 18.5781,31.4883 Q17.2656,29.832 17.2656,26.707 Q17.2656,23.582 18.5781,21.9258 Q19.9063,20.2695 22.4063,20.2695 Q23.1094,20.2695 23.75,20.4258 Q24.4063,20.582 24.9688,20.8789 L24.9688,23.5977 Q24.3438,23.0195 23.75,22.7539 Q23.1563,22.4727 22.5313,22.4727 Q21.1875,22.4727 20.5,23.5508 Q19.8125,24.6133 19.8125,26.707 Q19.8125,28.8008 20.5,29.8789 Q21.1875,30.9414 22.5313,30.9414 Q23.1563,30.9414 23.75,30.6758 Q24.3438,30.3945 24.9688,29.8164 L24.9688,32.5352 Z " fill="#000000"/><text fill="#D9B8FF" font-family="Helvetica" font-size="17" lengthAdjust="spacing" textLength="302" x="41" y="32.7798">azure_machine_learning_workspace</text></g><!--link azure_machine_learning_workspace to azure_machine_learning_endpoint--><g id="link_azure_machine_learning_workspace_azure_machine_learning_endpoint"><path codeLine="29" d="M179,47.22 C179,64.36 179,83.27 179,100.41 " fill="none" id="azure_machine_learning_workspace-to-azure_machine_learning_endpoint" style="stroke:#1A83AF;stroke-width:2.0;"/><polygon fill="#1A83AF" points="179,106.41,183,97.41,179,101.41,175,97.41,179,106.41" style="stroke:#1A83AF;stroke-width:2.0;"/></g><!--SRC=[XT91JuCm50VmEv-YoSvBm4M1YmcIB7fPZFDc37cZhwC1Ml9Q99lnkyj4JGKthds_zFz_JGl9aM7Ts0EhiTuX6S-KKZL0KBE4I7UfhZInXH0WLk5ukDRApe8DrCZkiNf3AtCOY-T2vgL2OzYLCxg3lDoJRXKVhhS4olGZLDPHQGN69DQItBKMdJ8ytaL2ZENuqiMA1-4DJfWcZlHDVD_dGJmcir4Nz_uLMtb45hYFjj4M9pKd4L_gOikJS4fE5lsPd-tu29nBjMVNpjdJq8aKqf_pRG5SToSje39kZB58gEsXmNIo5SOH5-6_-E4SzlBJqp4ujeHP3NaX5MOL0ga-FKF56osLPU-Uzt6PTfhA_Z_bEDXPjNnP14cqIjQlozkvUEyJ]--></g></svg>

<svg xmlns="http://www.w3.org/2000/svg" width="358" height="152" viewBox="0 0 358 152"><rect width="330" height="39.789" x="14" y="106.79" fill="#3D176E" rx="2.5" ry="2.5" style="stroke:#000d19;stroke-width:.5"/><circle cx="29" cy="126.684" r="11" fill="#ADD1B2" style="stroke:#181818;stroke-width:1"/><path d="M31.969 132.325q-.578.297-1.219.438-.64.156-1.344.156-2.5 0-3.828-1.64-1.312-1.657-1.312-4.782t1.312-4.781q1.328-1.656 3.828-1.656.703 0 1.344.156.656.156 1.219.453v2.719q-.625-.579-1.219-.844-.594-.281-1.219-.281-1.343 0-2.031 1.078-.687 1.062-.687 3.156t.687 3.172q.688 1.062 2.031 1.062.625 0 1.219-.265.594-.281 1.219-.86z"/><text x="48" y="132.57" fill="#D9B8FF" font-family="Helvetica" font-size="17" textLength="288">azure_machine_learning_endpoint</text><rect width="344" height="39.789" x="7" y="7" fill="#3D176E" rx="2.5" ry="2.5" style="stroke:#000d19;stroke-width:.5"/><circle cx="22" cy="26.895" r="11" fill="#ADD1B2" style="stroke:#181818;stroke-width:1"/><path d="M24.969 32.535q-.578.297-1.219.438-.64.156-1.344.156-2.5 0-3.828-1.64-1.312-1.657-1.312-4.782t1.312-4.781q1.328-1.656 3.828-1.656.703 0 1.344.156.656.156 1.219.453v2.719q-.625-.578-1.219-.844-.594-.281-1.219-.281-1.343 0-2.031 1.078-.687 1.062-.687 3.156t.687 3.172q.688 1.062 2.031 1.062.625 0 1.219-.265.594-.281 1.219-.86z"/><text x="41" y="32.78" fill="#D9B8FF" font-family="Helvetica" font-size="17" textLength="302">azure_machine_learning_workspace</text><path fill="none" d="M179 47.22v53.19" style="stroke:#1a83af;stroke-width:2"/><path fill="#1A83AF" d="m179 106.41 4-9-4 4-4-4z" style="stroke:#1a83af;stroke-width:2"/></svg>
